Simply-Black-Circles/scalable/emotes/face-embarrassed.svg

<svg xmlns="http://www.w3.org/2000/svg" width="48" height="48" viewBox="0 0 12.7 12.7"><path style="marker:none" d="M6.34.07a6.29 6.29 0 0 0-6.29 6.3 6.29 6.29 0 0 0 6.3 6.28 6.29 6.29 0 0 0 6.28-6.29A6.29 6.29 0 0 0 6.34.07zM6.32 1l.01.01a5.4 5.4 0 0 1 5.4 5.4 5.4 5.4 0 0 1-5.4 5.41 5.4 5.4 0 0 1-5.41-5.4A5.4 5.4 0 0 1 6.32 1zM4.24 3.15c-.68 0-1.22 1.07-1.54 1.73.59-.5 1.42-2.21 2.53-.9-.35-.6-.68-.82-.99-.83zm4.22 0c-.3 0-.64.24-1 .83 1.12-1.31 1.95.4 2.53.9-.31-.66-.86-1.74-1.53-1.73zM4.38 4.82c-.35 0-.88.52-.88.52 0 .84.31 2.47.67 2.47.35 0 .64-.67.64-1.5 0-.54.15-1.49-.43-1.49zm3.9 0c-.59 0-.43.95-.43 1.49 0 .83.28 1.5.64 1.5.35 0 .67-1.63.67-2.46 0 0-.53-.53-.89-.53zm-4.08.3a.21.33 0 0 1 .21.33.21.33 0 0 1-.21.33.21.33 0 0 1-.22-.33.21.33 0 0 1 .22-.33zm4.26 0a.21.33 0 0 1 .21.33.21.33 0 0 1-.21.33.21.33 0 0 1-.22-.33.21.33 0 0 1 .22-.32zm-.99 4.86c-.54 0-1.2.08-1.7.2 1.82.3 2.62.1 2.62.1.03-.2-.38-.3-.92-.3z" overflow="visible" fill="#1a1a1a"/><path d="M2.9 7.65a.77.79 0 0 0-.77.8.77.79 0 0 0 .76.78.77.79 0 0 0 .77-.79.77.79 0 0 0-.77-.79zm6.87 0a.77.79 0 0 0-.76.8.77.79 0 0 0 .76.78.77.79 0 0 0 .77-.79.77.79 0 0 0-.77-.79z" fill="#ff2a2a" opacity=".75"/></svg>

<?xml version="1.0" encoding="UTF-8" standalone="no"?>
<svg
   xmlns:dc="http://purl.org/dc/elements/1.1/"
   xmlns:cc="http://creativecommons.org/ns#"
   xmlns:rdf="http://www.w3.org/1999/02/22-rdf-syntax-ns#"
   xmlns:svg="http://www.w3.org/2000/svg"
   xmlns="http://www.w3.org/2000/svg"
   xmlns:sodipodi="http://sodipodi.sourceforge.net/DTD/sodipodi-0.dtd"
   xmlns:inkscape="http://www.inkscape.org/namespaces/inkscape"
   width="48"
   height="48"
   viewBox="0 0 12.7 12.7"
   version="1.1"
   id="svg6"
   sodipodi:docname="face-embarrassed.svg"
   inkscape:version="0.92.4 (5da689c313, 2019-01-14)">
  <metadata
     id="metadata12">
    <rdf:RDF>
      <cc:Work
         rdf:about="">
        <dc:format>image/svg+xml</dc:format>
        <dc:type
           rdf:resource="http://purl.org/dc/dcmitype/StillImage" />
        <dc:title></dc:title>
      </cc:Work>
    </rdf:RDF>
  </metadata>
  <defs
     id="defs10" />
  <sodipodi:namedview
     pagecolor="#ffffff"
     bordercolor="#666666"
     borderopacity="1"
     objecttolerance="10"
     gridtolerance="10"
     guidetolerance="10"
     inkscape:pageopacity="0"
     inkscape:pageshadow="2"
     inkscape:window-width="1087"
     inkscape:window-height="480"
     id="namedview8"
     showgrid="false"
     inkscape:zoom="4.9166667"
     inkscape:cx="2.1355932"
     inkscape:cy="24"
     inkscape:window-x="0"
     inkscape:window-y="25"
     inkscape:window-maximized="0"
     inkscape:current-layer="svg6" />
  <path
     style="overflow:visible;fill:#1a1a1a;marker:none"
     d="M 6.34,0.07 A 6.29,6.29 0 0 0 0.05,6.37 6.29,6.29 0 0 0 6.35,12.65 6.29,6.29 0 0 0 12.63,6.36 6.29,6.29 0 0 0 6.34,0.07 Z M 6.32,1 6.33,1.01 a 5.4,5.4 0 0 1 5.4,5.4 5.4,5.4 0 0 1 -5.4,5.41 A 5.4,5.4 0 0 1 0.92,6.42 5.4,5.4 0 0 1 6.32,1 Z M 4.24,3.15 C 3.56,3.15 3.02,4.22 2.7,4.88 3.29,4.38 4.12,2.67 5.23,3.98 4.88,3.38 4.55,3.16 4.24,3.15 Z m 4.22,0 c -0.3,0 -0.64,0.24 -1,0.83 1.12,-1.31 1.95,0.4 2.53,0.9 C 9.68,4.22 9.13,3.14 8.46,3.15 Z M 4.38,4.82 c -0.35,0 -0.88,0.52 -0.88,0.52 0,0.84 0.31,2.47 0.67,2.47 0.35,0 0.64,-0.67 0.64,-1.5 0,-0.54 0.15,-1.49 -0.43,-1.49 z m 3.9,0 c -0.59,0 -0.43,0.95 -0.43,1.49 0,0.83 0.28,1.5 0.64,1.5 0.35,0 0.67,-1.63 0.67,-2.46 0,0 -0.53,-0.53 -0.89,-0.53 z M 4.2,5.12 A 0.21,0.33 0 0 1 4.41,5.45 0.21,0.33 0 0 1 4.2,5.78 0.21,0.33 0 0 1 3.98,5.45 0.21,0.33 0 0 1 4.2,5.12 Z m 4.26,0 A 0.21,0.33 0 0 1 8.67,5.45 0.21,0.33 0 0 1 8.46,5.78 0.21,0.33 0 0 1 8.24,5.45 0.21,0.33 0 0 1 8.46,5.13 Z M 7.47,9.98 c -0.54,0 -1.2,0.08 -1.7,0.2 1.82,0.3 2.62,0.1 2.62,0.1 0.03,-0.2 -0.38,-0.3 -0.92,-0.3 z"
     overflow="visible"
     id="path2"
     inkscape:connector-curvature="0" />
  <path
     d="M 2.9,7.65 A 0.77,0.79 0 0 0 2.13,8.45 0.77,0.79 0 0 0 2.89,9.23 0.77,0.79 0 0 0 3.66,8.44 0.77,0.79 0 0 0 2.89,7.65 Z m 6.87,0 A 0.77,0.79 0 0 0 9.01,8.45 0.77,0.79 0 0 0 9.77,9.23 0.77,0.79 0 0 0 10.54,8.44 0.77,0.79 0 0 0 9.77,7.65 Z"
     id="path4"
     inkscape:connector-curvature="0"
     style="opacity:0.75;fill:#ff2a2a" />
</svg>
